flags/cn.svg

<svg width="512" height="512" viewBox="0 0 512 512" fill="none" xmlns="http://www.w3.org/2000/svg">
<rect width="512" height="512" fill="var(--flag-palette-bright-red, #d80027)"/>
<path fill-rule="evenodd" clip-rule="evenodd" d="M302.2 141.6L304.2 114.9L286.9 135.4L262 125.3L276.2 148L258.9 168.5L285 162.1L299.1 184.9L301 158.1L327.1 151.7L302.2 141.6ZM140.1 155.8L162.2 223.8H233.7L175.9 265.9L198 333.9L140.1 291.9L82.2 333.9L104.4 265.9L46.5 223.8H118L140.1 155.8ZM303.499 396.5L286.599 375.7L261.599 385.4L276.099 362.9L259.199 342L285.099 348.9L299.699 326.4L301.099 353.2L327.099 360.1L301.999 369.7L303.499 396.5ZM345.099 309.9L337.099 335.5L358.599 319.4L380.499 334.9L371.899 309.5L393.399 293.5L366.599 293.8L357.899 268.4L349.999 294L323.199 294.4L345.099 309.9ZM382.401 187.9L370.601 212L389.801 230.7L363.301 226.9L351.501 250.9L346.901 224.5L320.301 220.7L344.101 208.2L339.501 181.7L358.701 200.4L382.401 187.9Z" fill="var(--flag-palette-yellow, #ffda44)"/>
</svg>

<svg xmlns="http://www.w3.org/2000/svg" width="512" height="512" fill="none"><path fill="var(--flag-palette-bright-red, #d80027)" d="M0 0h512v512H0z"/><path fill="var(--flag-palette-yellow, #ffda44)" fill-rule="evenodd" d="m302.2 141.6 2-26.7-17.3 20.5-24.9-10.1 14.2 22.7-17.3 20.5 26.1-6.4 14.1 22.8 1.9-26.8 26.1-6.4zm-162.1 14.2 22.1 68h71.5l-57.8 42.1 22.1 68-57.9-42-57.9 42 22.2-68-57.9-42.1H118zm163.4 240.7-16.9-20.8-25 9.7 14.5-22.5-16.9-20.9 25.9 6.9 14.6-22.5 1.4 26.8 26 6.9-25.1 9.6zm41.6-86.6-8 25.6 21.5-16.1 21.9 15.5-8.6-25.4 21.5-16-26.8.3-8.7-25.4L350 294l-26.8.4zm37.3-122L370.6 212l19.2 18.7-26.5-3.8-11.8 24-4.6-26.4-26.6-3.8 23.8-12.5-4.6-26.5 19.2 18.7z" clip-rule="evenodd"/></svg>
